X:1
T:Title
%%score { ( 1 2 ) | ( 3 4 ) }
L:1/8
M:9/8
K:Ab
V:1 treble nm="Grand Piano"
V:2 treble 
V:3 treble 
V:4 treble 
V:1
 z3 z3[Q:1/4=100] z Ac | e3 c3 cdB | [CA]3 [CE]3 C-[CA][Ec] | [EB]3 [Ge]3 .[Ge]2 [EGe] | %4
[M:3/4] c6 |[M:3/8] z Ac |[M:9/8] e3 c3 cdB | [CA]3 [CE]3 C-[CA][Ec] | B3 d3 GF[B,DG] | %9
[M:3/4] [A,CA]6 |[M:12/8] z3 e2- [Ge-] [Ge-]2 [Ge-] [Ge]2 [Gd] | z3 A6 E3 | %12
 cBA B2- [EB-] [EB-]2 [EB-] [=DB]2 [DB] | =dc[Ad] e2- [Ge-] [Ae-]2 [Ae-] [B-e]2 B | z3 A6- A2 z | %15
 cde f2- [Ff-] [Ff-]2 [Ff] B2- [FB] | dc[B,FB] [CEA]3 [FAd]3 [EGc]3 | %17
[M:5/4] [DGB]3 A3- [FA-]2 [FA-][EA]- | [EA]2 z2 z2 z4 |] %19
V:2
 z3 z3 .E3 | x9 | z3 z3 .E3 | x9 |[M:3/4] x6 |[M:3/8] E2 z |[M:9/8] x9 | z3 z3 .E3 | x9 | %9
[M:3/4] x6 |[M:12/8] z3 .G3 z6 | GFG C2 C C2 C C2 C | z3 .E3 z6 | .A3 .G3 z6 | %14
 EFG z2 E E2 E .E2 B | .E3 .F3 z3 .F3 | .F3 z3 z6 |[M:5/4] z2 z [CE]3 z4 | x10 |] %19
V:3
 z3 z3 [A,C]2 [A,EA] | [A,CA]3[K:bass] [A,E]3 [E,G,E]2 [E,G,D] | %2
 [A,,A,]3 [A,,A,]3 [A,,A,]2 [A,,A,] | [E,G,]3 [E,B,]3 z[K:treble] fE, |[M:3/4] [A,EA]6 | %5
[M:3/8] [A,C]2 [A,EA] |[M:9/8] [A,CA]3[K:bass] [A,E]3 [E,G,E]2 [E,G,D] | %7
 [A,,A,]3 [A,,A,]3 [A,,A,]2 [A,,A,] | [E,G,E]3 [E,G,E]3 [E,B,D]2 E, |[M:3/4] A,,6 | %10
[M:12/8][K:treble] cBA[K:bass] [E,B,]2 [E,B,] [E,B,]2 [E,B,] [E,B,]2 [E,B,] | %11
 [E,B,D]2 [E,B,D] [A,,A,]2 [A,,A,] [A,,A,]2 [A,,A,] [A,,A,]2 [A,,A,] | %12
 z3 [B,,G,]2 [B,,G,] [B,,G,]2 [B,,G,] [B,,F,]2 [B,,F,] | %13
 [B,,B,]2 [B,,B,] [E,B,]2 [E,B,] [E,C]2 [E,C] .[E,D]3 | %14
 z3 [A,CE]2 [A,C] [A,C]2 [A,C] [A,C]2 [E,G,E] | %15
 [A,,A,]2 [A,C_G] [D,D]2 [D,A,] [D,A,]2 [D,A,] [D,B,]2 [D,B,] | [B,,B,][C,=A,]D, E,3 E,3 E,3 | %17
[M:5/4] E,4 z2 D2 DC- | C2 z2 z2 z4 |] %19
V:4
 x9 | x3[K:bass] x6 | x9 | z3 z3 .[E,D]3[K:treble] |[M:3/4] x6 |[M:3/8] x3 |[M:9/8] x3[K:bass] x6 | %7
 x9 | x9 |[M:3/4] x6 |[M:12/8][K:treble] x3[K:bass] x9 | x12 | x12 | x12 | x12 | x12 | x12 | %17
[M:5/4] z2 z A,,- A,,6- | A,,2 z2 z2 z4 |] %19

